; generated by PrusaSlicer 2.6.1+win64 on 2023-11-18 at 19:47:45 UTC


;
;
; 

; external perimeters extrusion width = 0.45mm
; perimeters extrusion width = 0.45mm
; infill extrusion width = 0.45mm
; solid infill extrusion width = 0.45mm
; top infill extrusion width = 0.40mm
; first layer extrusion width = 0.42mm

M73 P0 R157
M201 X9000 Y9000 Z500 E10000 ; sets maximum accelerations, mm/sec^2
M203 X500 Y500 Z12 E120 ; sets maximum feedrates, mm / sec
M204 S2000 T1500 ; sets acceleration (S) and retract acceleration (R), mm/sec^2
M205 X10.00 Y10.00 Z0.20 E4.50 ; sets the jerk limits, mm/sec
M205 S0 T0 ; sets the minimum extruding and travel feed rate, mm/sec
;TYPE:Custom
M862.3 P "MK2.5S" ; printer model check
M862.1 P0.4 ; nozzle diameter check
M115 U3.13.2 ; tell printer latest fw version
G90 ; use absolute coordinates
M83 ; extruder relative mode
M104 S215 ; set extruder temp
M140 S60 ; set bed temp
M190 S60 ; wait for bed temp
M109 S215 ; wait for extruder temp
G28 W ; home all without mesh bed level
G80 ; mesh bed leveling

G1 Z0.2 F720
G1 Y-3 F1000 ; go outside print area
G92 E0
G1 X60 E9 F1000 ; intro line
G1 X100 E12.5 F1000 ; intro line

G92 E0
G21 ; set units to millimeters
G90 ; use absolute coordinates
M83 ; use relative distances for extrusion
M900 K0.05 ; Filament gcode LA 1.5
M900 K30 ; Filament gcode LA 1.0

M107
;LAYER_CHANGE
;Z:0.2
;HEIGHT:0.2
;BEFORE_LAYER_CHANGE
G92 E0.0
;0.2


G1 E-.8 F2100
G1 Z.4 F720
;AFTER_LAYER_CHANGE
;0.2
G1 X95.993 Y63.772 F10800
G1 Z.2 F720
G1 E.8 F2100
M204 S800
;TYPE:Skirt/Brim
;WIDTH:0.42
G1 F1200
G1 X97.005 Y62.857 E.04278
G1 X97.778 Y62.639 E.02518
G1 X115.624 Y60.763 E.56263
G1 X134.376 Y60.763 E.58796
G1 X152.222 Y62.639 E.56263
G1 X153.481 Y63.165 E.04278
G1 X154.243 Y64.297 E.04279
G1 X154.349 Y65.093 E.02518
G1 X151.371 Y144.465 E2.4904
G1 X151.291 Y145.157 E.02184
G1 X151.117 Y145.753 E.01947
G1 X150.736 Y146.5 E.02629
G1 X149.922 Y147.395 E.03793
G1 X148.869 Y147.996 E.03802
G1 X147.686 Y148.241 E.03788
G1 X102.5 Y148.248 E1.41678
G1 X101.718 Y148.166 E.02465
G1 X101.122 Y147.993 E.01946
G1 X100.376 Y147.612 E.02626
G1 X99.481 Y146.798 E.03793
G1 X98.879 Y145.744 E.03806
G1 X98.634 Y144.561 E.03788
G1 X95.651 Y65.093 E2.49342
G1 X95.978 Y63.83 E.04091
M204 S1000
; printing object Daring Tumelo-Crift.stl id:0 copy 0
;WIPE_START
G1 F8640
G1 X97.005 Y62.857 E-.32666
G1 X97.778 Y62.639 E-.18545
G1 X99.018 Y62.509 E-.28789
;WIPE_END
G1 Z.6 F720
G1 X112.407 Y98.967 F10800
G1 Z.2 F720
G1 E.8 F2100
M204 S800
;TYPE:Perimeter
;WIDTH:0.419999
G1 F1200
G1 X112.413 Y99.05 E.00261
G1 X112.506 Y99.25 E.00692
G1 X112.709 Y99.422 E.00834
G1 X112.962 Y99.482 E.00815
G1 X137.038 Y99.482 E.75488
G1 X137.348 Y99.389 E.01015
G1 X137.523 Y99.207 E.00792
G1 X137.602 Y98.946 E.00855
G1 X137.63 Y98.393 E.01736
G1 X137.557 Y98.125 E.00871
G1 X137.355 Y97.918 E.00907
G1 X137.123 Y97.841 E.00766
G1 X134.516 Y97.569 E.08218
G1 X134.111 Y97.529 E.01276
G1 X133.348 Y97.512 E.02393
G1 X134.324 Y96.828 E.03737
G1 X134.562 Y96.424 E.0147
G1 X137.314 Y70.242 E.82544
G1 X137.277 Y69.973 E.00851
G1 X137.145 Y69.776 E.00744
G1 X136.687 Y69.333 E.01998
G1 X135.573 Y67.478 E.06784
G1 X134.968 Y65.389 E.06819
G1 X134.935 Y64.004 E.04344
G1 X151.001 Y65.693 E.50651
G1 X150.68 Y67.04 E.04342
G1 X149.656 Y68.958 E.06817
G1 X148.18 Y70.541 E.06786
G1 X147.641 Y70.878 E.01993
G1 X147.47 Y71.043 E.00745
G1 X147.378 Y71.298 E.0085
G1 X144.626 Y97.481 E.82547
G1 X144.642 Y97.688 E.00651
G1 X144.768 Y97.919 E.00825
G1 X145.413 Y98.633 E.03017
G1 X145.866 Y99.25 E.024
G1 X146.096 Y99.435 E.00925
G1 X146.322 Y99.482 E.00724
G1 X147.394 Y99.482 E.03361
G1 X147.394 Y144.269 E1.40426
G1 X102.606 Y144.269 E1.40429
G1 X102.606 Y99.482 E1.40426
G1 X103.678 Y99.482 E.03361
G1 X103.904 Y99.435 E.00724
G1 X104.134 Y99.25 E.00925
G1 X104.587 Y98.633 E.024
G1 X105.232 Y97.919 E.03017
G1 X105.336 Y97.753 E.00614
G1 X105.374 Y97.481 E.00861
G1 X102.622 Y71.3 E.82541
G1 X102.53 Y71.043 E.00856
G1 X102.359 Y70.878 E.00745
G1 X101.82 Y70.541 E.01993
G1 X100.344 Y68.958 E.06786
G1 X99.32 Y67.04 E.06817
G1 X98.999 Y65.693 E.04342
G1 X115.065 Y64.004 E.50651
G1 X115.032 Y65.389 E.04344
G1 X114.427 Y67.478 E.06819
G1 X113.313 Y69.333 E.06784
G1 X112.855 Y69.776 E.01998
G1 X112.723 Y69.973 E.00744
G1 X112.686 Y70.241 E.00848
G1 X115.438 Y96.424 E.82547
G1 X115.676 Y96.828 E.0147
G1 X116.652 Y97.512 E.03737
G1 X115.842 Y97.532 E.0254
G1 X112.877 Y97.841 E.09347
G1 X112.741 Y97.872 E.00437
G1 X112.503 Y98.039 E.00912
G1 X112.398 Y98.227 E.00675
G1 X112.371 Y98.433 E.00651
G1 X112.403 Y98.907 E.0149
M204 S1000
G1 X112.774 Y98.926 F10800
M204 S800
;TYPE:External perimeter
G1 F1200
G1 X112.817 Y99.036 E.0037
G1 X112.962 Y99.105 E.00503
G1 X137.038 Y99.105 E.75488
G1 X137.159 Y99.06 E.00405
G1 X137.226 Y98.926 E.0047
G1 X137.253 Y98.413 E.01611
G1 X137.209 Y98.282 E.00433
G1 X137.084 Y98.216 E.00443
G1 X134.103 Y97.906 E.09397
G1 X133.248 Y97.887 E.02681
G1 X132.723 Y97.951 E.01658
G1 X132.219 Y97.897 E.01589
G1 X132.577 Y97.521 E.01628
G1 X133.057 Y97.256 E.01719
G1 X134.108 Y96.519 E.04025
G1 X134.187 Y96.384 E.0049
G1 X136.939 Y70.202 E.82544
G1 X136.883 Y70.047 E.00517
G1 X136.389 Y69.57 E.02153
G1 X135.224 Y67.63 E.07095
G1 X134.592 Y65.447 E.07126
G1 X134.548 Y63.584 E.05843
G1 X151.467 Y65.362 E.5334
G1 X151.036 Y67.175 E.05843
G1 X149.965 Y69.179 E.07124
G1 X148.422 Y70.834 E.07095
G1 X147.841 Y71.197 E.02148
G1 X147.753 Y71.338 E.00521
G1 X145.001 Y97.52 E.82544
G1 X145.048 Y97.666 E.00481
G1 X145.706 Y98.395 E.03079
G1 X146.17 Y99.028 E.02461
G1 X146.322 Y99.105 E.00534
G1 X147.404 Y99.105 E.03393
G1 X147.654 Y99.166 E.00807
G1 X147.713 Y99.247 E.00314
G1 X147.771 Y99.4 E.00513
G1 X147.771 Y144.279 E1.40715
G1 X147.709 Y144.529 E.00808
G1 X147.628 Y144.588 E.00314
G1 X147.476 Y144.646 E.0051
G1 X102.596 Y144.646 E1.40718
G1 X102.346 Y144.584 E.00808
G1 X102.287 Y144.504 E.00312
G1 X102.229 Y144.351 E.00513
G1 X102.229 Y99.472 E1.40715
G1 X102.291 Y99.221 E.00811
G1 X102.372 Y99.163 E.00312
G1 X102.524 Y99.105 E.0051
G1 X103.678 Y99.105 E.03618
G1 X103.83 Y99.028 E.00534
G1 X104.294 Y98.395 E.02461
G1 X104.952 Y97.666 E.03079
G1 X104.999 Y97.52 E.00481
G1 X102.247 Y71.338 E.82544
G1 X102.159 Y71.197 E.00521
G1 X101.578 Y70.834 E.02148
G1 X100.035 Y69.179 E.07095
G1 X98.964 Y67.175 E.07124
G1 X98.533 Y65.362 E.05843
G1 X115.452 Y63.584 E.5334
G1 X115.408 Y65.447 E.05843
G1 X114.776 Y67.63 E.07126
G1 X113.611 Y69.57 E.07095
G1 X113.117 Y70.047 E.02153
G1 X113.061 Y70.202 E.00517
G1 X115.813 Y96.384 E.82544
G1 X115.892 Y96.519 E.0049
G1 X116.961 Y97.266 E.04089
G1 X117.464 Y97.543 E.018
G1 X117.781 Y97.897 E.0149
G1 X117.277 Y97.951 E.01589
G1 X116.752 Y97.887 E.01658
G1 X115.881 Y97.907 E.02732
G1 X112.916 Y98.216 E.09347
G1 X112.791 Y98.282 E.00443
G1 X112.747 Y98.413 E.00433
G1 X112.771 Y98.866 E.01422
M204 S1000
G1 X112.689 Y99.007 F10800
;WIPE_START
G1 F8640
G1 X112.817 Y99.036 E-.04067
G1 X112.962 Y99.105 E-.03708
G1 X116.09 Y99.105 E-.72225
;WIPE_END
G1 Z.6 F720
G1 X114.872 Y64.95 F10800
G1 Z.2 F720
M73 P0 R156
G1 E.8 F2100
M204 S800
;TYPE:Solid infill
;WIDTH:0.421493
G1 F1200
G1 X114.343 Y64.421 E.02355
G1 X113.859 Y64.472 E.01532
G1 X114.694 Y65.307 E.03717
G1 X114.58 Y65.729 E.01376
G1 X113.374 Y64.523 E.05369
G1 X112.89 Y64.574 E.01532
G1 X114.46 Y66.144 E.06989
G1 X114.34 Y66.559 E.0136
G1 X112.405 Y64.625 E.08612
G1 X111.921 Y64.675 E.01532
G1 X114.22 Y66.974 E.10235
G1 X114.09 Y67.38 E.01342
G1 X111.436 Y64.726 E.11815
G1 X110.952 Y64.777 E.01532
G1 X113.889 Y67.715 E.13077
G1 X113.688 Y68.049 E.01227
G1 X110.467 Y64.828 E.14339
G1 X109.983 Y64.879 E.01532
G1 X113.487 Y68.384 E.15601
G1 X113.287 Y68.718 E.01225
G1 X109.498 Y64.93 E.16865
G1 X109.014 Y64.981 E.01532
G1 X113.086 Y69.053 E.18127
G1 X113.045 Y69.12 E.00247
G1 X112.828 Y69.33 E.00951
G1 X108.53 Y65.032 E.19134
G1 X108.045 Y65.083 E.01535
G1 X112.562 Y69.6 E.20108
G1 X112.491 Y69.685 E.00349
G1 X112.407 Y69.846 E.00572
G1 X112.376 Y69.95 E.00342
G1 X107.561 Y65.134 E.21437
G1 X107.076 Y65.185 E.01535
G1 X112.371 Y70.48 E.23572
G1 X112.434 Y71.078 E.01893
G1 X106.592 Y65.236 E.26007
G1 X106.107 Y65.287 E.01535
G1 X112.497 Y71.677 E.28447
G1 X112.56 Y72.275 E.01893
G1 X105.623 Y65.338 E.30882
G1 X105.138 Y65.388 E.01535
G1 X112.623 Y72.873 E.33321
G1 X112.686 Y73.471 E.01893
G1 X104.654 Y65.439 E.35756
G1 X104.169 Y65.49 E.01535
G1 X112.749 Y74.069 E.38194
G1 X112.811 Y74.668 E.01896
G1 X103.685 Y65.541 E.40629
G1 X103.2 Y65.592 E.01535
G1 X112.874 Y75.266 E.43066
G1 X112.937 Y75.864 E.01893
G1 X102.716 Y65.643 E.45501
G1 X102.232 Y65.694 E.01532
G1 X113 Y76.462 E.47936
G1 X113.063 Y77.061 E.01896
G1 X101.747 Y65.745 E.50376
G1 X101.263 Y65.796 E.01532
G1 X113.126 Y77.659 E.52811
G1 X113.188 Y78.257 E.01893
G1 X100.778 Y65.847 E.55246
G1 X100.294 Y65.898 E.01532
G1 X113.251 Y78.855 E.57681
G1 X113.314 Y79.453 E.01893
G1 X99.809 Y65.949 E.60118
G1 X99.419 Y65.99 E.01234
G1 X99.451 Y66.126 E.0044
G1 X113.377 Y80.052 E.61995
G1 X113.44 Y80.65 E.01893
G1 X99.618 Y66.828 E.61532
G1 X99.64 Y66.919 E.00295
G1 X100.174 Y67.92 E.03571
G1 X113.503 Y81.248 E.59335
G1 X113.565 Y81.846 E.01893
G1 X102.954 Y71.235 E.47237
G1 X103.017 Y71.833 E.01893
G1 X113.628 Y82.445 E.4724
G1 X113.691 Y83.043 E.01893
G1 X103.08 Y72.431 E.4724
G1 X103.143 Y73.03 E.01896
G1 X113.754 Y83.641 E.47237
G1 X113.817 Y84.239 E.01893
G1 X103.206 Y73.628 E.47237
G1 X103.269 Y74.226 E.01893
G1 X113.88 Y84.838 E.4724
G1 X113.943 Y85.436 E.01893
G1 X103.332 Y74.825 E.47237
G1 X103.395 Y75.423 E.01893
G1 X114.005 Y86.034 E.47235
G1 X114.068 Y86.632 E.01893
G1 X103.457 Y76.021 E.47237
G1 X103.52 Y76.62 E.01896
G1 X114.131 Y87.23 E.47235
G1 X114.194 Y87.829 E.01896
G1 X103.583 Y77.218 E.47237
G1 X103.646 Y77.816 E.01893
G1 X114.257 Y88.427 E.47237
G1 X114.32 Y89.025 E.01893
G1 X103.709 Y78.415 E.47235
G1 X103.772 Y79.013 E.01893
G1 X114.382 Y89.623 E.47233
G1 X114.445 Y90.222 E.01896
G1 X103.835 Y79.612 E.47233
G1 X103.898 Y80.21 E.01893
G1 X114.508 Y90.82 E.47233
G1 X114.571 Y91.418 E.01893
G1 X103.961 Y80.808 E.47233
G1 X104.024 Y81.407 E.01896
G1 X114.634 Y92.016 E.47231
G1 X114.697 Y92.614 E.01893
G1 X104.087 Y82.005 E.47231
G1 X104.15 Y82.603 E.01893
G1 X114.759 Y93.213 E.47231
G1 X114.822 Y93.811 E.01893
G1 X104.213 Y83.202 E.47228
G1 X104.276 Y83.8 E.01893
G1 X114.885 Y94.409 E.47228
G1 X114.948 Y95.007 E.01893
G1 X104.339 Y84.398 E.47228
G1 X104.402 Y84.997 E.01896
G1 X115.011 Y95.606 E.47228
G1 X115.074 Y96.204 E.01893
G1 X104.465 Y85.595 E.47228
G1 X104.528 Y86.193 E.01893
G1 X115.555 Y97.22 E.49089
G1 X115.07 Y97.271 E.01535
M73 P1 R156
G1 X104.591 Y86.792 E.4665
G1 X104.654 Y87.39 E.01893
G1 X114.585 Y97.322 E.44212
G1 X114.101 Y97.372 E.01532
G1 X104.717 Y87.988 E.41775
G1 X104.78 Y88.587 E.01896
G1 X113.616 Y97.423 E.39335
G1 X113.131 Y97.473 E.01535
G1 X104.843 Y89.185 E.36896
G1 X104.906 Y89.783 E.01893
G1 X112.665 Y97.543 E.34543
G1 X112.466 Y97.628 E.00681
G1 X112.33 Y97.744 E.00563
G1 X104.969 Y90.382 E.32771
G1 X105.032 Y90.98 E.01893
G1 X112.105 Y98.053 E.31487
G1 X112.073 Y98.125 E.00248
G1 X112.03 Y98.382 E.0082
G1 X112.039 Y98.523 E.00445
G1 X104.904 Y91.388 E.31763
M204 S1000
;WIPE_START
G1 F8640
G1 X107.354 Y93.838 E-.8
;WIPE_END
G1 Z.6 F720
G1 X149.938 Y65.751 F10800
G1 Z.2 F720
G1 E.8 F2100
M204 S800
G1 F1200
G1 X150.504 Y66.317 E.0252
G1 X150.401 Y66.75 E.01401
G1 X149.531 Y65.879 E.03875
G1 X148.932 Y65.816 E.01896
G1 X150.247 Y67.131 E.05854
G1 X150.061 Y67.48 E.01245
G1 X148.334 Y65.753 E.07688
G1 X147.736 Y65.691 E.01893
G1 X149.874 Y67.829 E.09518
G1 X149.688 Y68.178 E.01245
G1 X147.137 Y65.628 E.11354
G1 X146.539 Y65.565 E.01893
G1 X149.501 Y68.527 E.13186
G1 X149.377 Y68.759 E.00828
G1 X149.291 Y68.852 E.00399
G1 X145.941 Y65.502 E.14913
G1 X145.343 Y65.439 E.01893
G1 X149.032 Y69.129 E.16425
G1 X148.774 Y69.406 E.01192
G1 X144.744 Y65.376 E.1794
G1 X144.146 Y65.313 E.01893
G1 X148.516 Y69.683 E.19454
G1 X148.257 Y69.96 E.01194
G1 X143.548 Y65.25 E.20965
G1 X142.949 Y65.187 E.01896
G1 X147.999 Y70.237 E.22481
G1 X147.68 Y70.453 E.01213
G1 X142.351 Y65.125 E.23721
G1 X141.753 Y65.062 E.01893
G1 X147.36 Y70.669 E.24961
G1 X147.188 Y70.853 E.00793
G1 X147.125 Y70.969 E.00416
G1 X141.155 Y64.999 E.26577
G1 X140.556 Y64.936 E.01896
G1 X147.028 Y71.408 E.28812
G1 X146.977 Y71.892 E.01532
G1 X139.958 Y64.873 E.31247
G1 X139.36 Y64.81 E.01893
G1 X146.926 Y72.376 E.33682
G1 X146.875 Y72.861 E.01535
G1 X138.762 Y64.747 E.36119
G1 X138.163 Y64.684 E.01896
G1 X146.824 Y73.345 E.38556
G1 X146.773 Y73.83 E.01535
G1 X137.565 Y64.621 E.40994
G1 X136.967 Y64.559 E.01893
G1 X146.722 Y74.314 E.43427
G1 X146.671 Y74.798 E.01532
G1 X136.368 Y64.496 E.45864
G1 X135.77 Y64.433 E.01893
G1 X146.62 Y75.283 E.48301
G1 X146.569 Y75.767 E.01532
G1 X135.286 Y64.484 E.50229
G1 X135.299 Y65.033 E.01729
G1 X146.518 Y76.252 E.49944
G1 X146.467 Y76.736 E.01532
G1 X135.404 Y65.672 E.49252
G1 X135.622 Y66.426 E.02471
G1 X146.416 Y77.22 E.48052
G1 X146.365 Y77.705 E.01535
G1 X135.84 Y67.179 E.46857
G1 X135.887 Y67.341 E.00531
G1 X136.518 Y68.393 E.03862
G1 X146.314 Y78.189 E.43609
G1 X146.263 Y78.674 E.01535
G1 X137.644 Y70.054 E.38372
G1 X137.657 Y70.207 E.00483
M73 P1 R155
G1 X137.62 Y70.565 E.01133
G1 X146.212 Y79.158 E.38251
G1 X146.161 Y79.642 E.01532
G1 X137.569 Y71.05 E.38249
G1 X137.518 Y71.534 E.01532
G1 X146.111 Y80.127 E.38254
G1 X146.06 Y80.611 E.01532
G1 X137.467 Y72.019 E.38251
G1 X137.416 Y72.503 E.01532
G1 X146.009 Y81.096 E.38254
G1 X145.958 Y81.58 E.01532
G1 X137.365 Y72.988 E.38251
G1 X137.314 Y73.472 E.01532
G1 X145.907 Y82.065 E.38254
G1 X145.856 Y82.549 E.01532
G1 X137.263 Y73.957 E.38251
G1 X137.212 Y74.441 E.01532
G1 X145.805 Y83.033 E.38251
G1 X145.754 Y83.518 E.01535
G1 X137.162 Y74.926 E.38249
G1 X137.111 Y75.41 E.01532
G1 X145.703 Y84.002 E.38249
G1 X145.652 Y84.487 E.01535
G1 X137.06 Y75.895 E.38249
G1 X137.009 Y76.379 E.01532
G1 X145.601 Y84.971 E.38249
G1 X145.55 Y85.455 E.01532
G1 X136.958 Y76.864 E.38247
G1 X136.907 Y77.348 E.01532
G1 X145.499 Y85.94 E.38249
G1 X145.448 Y86.424 E.01532
G1 X136.856 Y77.833 E.38247
G1 X136.805 Y78.317 E.01532
G1 X145.397 Y86.909 E.38249
G1 X145.346 Y87.393 E.01532
G1 X136.754 Y78.801 E.38249
G1 X136.703 Y79.286 E.01535
G1 X145.295 Y87.877 E.38247
G1 X145.244 Y88.362 E.01535
G1 X136.653 Y79.77 E.38247
G1 X136.602 Y80.255 E.01535
G1 X145.193 Y88.846 E.38245
G1 X145.142 Y89.331 E.01535
G1 X136.551 Y80.739 E.38247
G1 X136.5 Y81.224 E.01535
G1 X145.091 Y89.815 E.38245
G1 X145.04 Y90.299 E.01532
G1 X136.449 Y81.708 E.38245
G1 X136.398 Y82.193 E.01535
G1 X144.989 Y90.784 E.38245
G1 X144.938 Y91.268 E.01532
G1 X136.347 Y82.677 E.38245
G1 X136.296 Y83.162 E.01535
G1 X144.887 Y91.753 E.38245
G1 X144.836 Y92.237 E.01532
G1 X136.245 Y83.646 E.38245
G1 X136.195 Y84.131 E.01535
G1 X144.785 Y92.721 E.3824
G1 X144.734 Y93.206 E.01535
G1 X136.144 Y84.615 E.38243
G1 X136.093 Y85.1 E.01535
G1 X144.683 Y93.69 E.3824
G1 X144.632 Y94.175 E.01535
G1 X136.042 Y85.584 E.38243
G1 X135.991 Y86.069 E.01535
G1 X144.581 Y94.659 E.3824
G1 X144.53 Y95.144 E.01535
G1 X135.94 Y86.553 E.38243
G1 X135.889 Y87.038 E.01535
G1 X144.479 Y95.628 E.3824
G1 X144.428 Y96.112 E.01532
G1 X135.838 Y87.522 E.3824
G1 X135.787 Y88.007 E.01535
G1 X144.377 Y96.597 E.3824
G1 X144.326 Y97.081 E.01532
G1 X135.736 Y88.491 E.3824
G1 X135.686 Y88.976 E.01535
G1 X144.508 Y97.798 E.39273
M204 S1000
;WIPE_START
G1 F8640
G1 X142.058 Y95.348 E-.8
;WIPE_END
G1 Z.6 F720
G1 X146.361 Y99.652 F10800
G1 Z.2 F720
G1 E.8 F2100
M204 S800
G1 F1200
G1 X147.054 Y100.344 E.03083
G1 X147.054 Y100.88 E.01687
G1 X135.635 Y89.46 E.50837
G1 X135.584 Y89.945 E.01535
G1 X147.054 Y101.415 E.51061
G1 X147.054 Y101.951 E.01687
G1 X135.533 Y90.429 E.51291
G1 X135.482 Y90.914 E.01535
G1 X147.054 Y102.486 E.51515
G1 X147.054 Y103.021 E.01684
G1 X135.431 Y91.398 E.51742
G1 X135.38 Y91.883 E.01535
G1 X147.054 Y103.557 E.51969
G1 X147.054 Y104.092 E.01684
G1 X135.329 Y92.367 E.52197
G1 X135.278 Y92.852 E.01535
G1 X147.054 Y104.627 E.52421
G1 X147.054 Y105.163 E.01687
G1 X135.228 Y93.336 E.52648
